X: 23
T:Molly Oxford, Fieldtown
M:2/2
L:1/8
A:Fieldtown
P:AAB(CB)2
K:F
P:A
cdec    f2c2|B2A2 G4     |F2(3AAB c2f2|e2f2 g4  |
f2(3gga b2g2|a2f2 e2(3cde|f2c2    B2A2|G4   F4  ||
P:B
A2c2    A2c2|A2c2 c2BA   |B2d2    B2d2|B2d2 d2c2|
f2(3gga b2g2|a2f2 e2(3cde|f2c2    B2A2|G4   F4  ||
P:C
c2d2    e2c2|f4   c4     |B4      A4  |G6   E2  |\
F2G2    A2B2|c4   f4     |e4      f4  |g6   e2  |
f2(3gga b2g2|a2f2 e2(3cde|f2c2    B2A2|G4   F4  ||
